X:1
T: The Octagon
N:
C:Tune is "Dalegarth" by Brian Jenkins
S:
A:
O:
R:
M:4/4
K:G
I:speed 200
%W: A
% voice 1 (1 lines, 30 notes)
K:G
M:4/4
L:1/16
D4 |E4 G4 c4 B2 A2 |d4 G8 D4 |E4 G4 G6 E2 |D12 D4 |E4 G4 c4 d2 e2 |d4 g8 b4 |a4 g4 f6 g2 |a12 b2 a2 |
%W:
% voice 1 (1 lines, 32 notes)
g4 e4 e4 g2 e2 |d4 B4 B4 D4 |E4 G4 G6 A2 |B12 B2 A2 |G4 E4 E4 G2 E2 |D4 B,4 B,4 B2 A2 |G4 E4 E4 D4 |E12 D4 |
%W: B
% voice 1 (1 lines, 36 notes)
B4 d2 e2 B4 d2 e2 |g4 e2 d2 B4 A2 G2 |E4 G4 G8 |^D4 F4 F8 |E4 G2 A2 B4 d2 e2 |g4 e2 d2 B4 A2 G2 |A4 d4 d8 |A4 D4 D8 |
%W:
% voice 1 (1 lines, 33 notes)
B4 d2 e2 B4 d2 e2 |g4 e2 d2 B4 A2 G2 |A4 A4 B4 d4 |e12 e2 f2 |g4 e4 e4 d2 B2 |d4 B4 B4 D4 |E4 G4 G6 E2 |G12 ||
